hugo/static/images/service-3.svg

<svg width="168" height="168" viewBox="0 0 168 168" fill="none" xmlns="http://www.w3.org/2000/svg">
<path d="M99.4843 154.236L90.8819 162.94H62.241L85.2145 139.966L99.4843 154.236Z" fill="url(#paint0_linear)" stroke="white" stroke-width="10" stroke-miterlimit="10" stroke-linejoin="round"/>
<path d="M156.058 154.945L148.164 162.94H119.523L141.788 140.675L156.058 154.945Z" fill="url(#paint1_linear)" stroke="white" stroke-width="10" stroke-miterlimit="10" stroke-linejoin="round"/>
<path d="M162.94 148.063V162.94H148.164L156.058 154.945L162.94 148.063Z" fill="url(#paint2_linear)" stroke="white" stroke-width="10" stroke-miterlimit="10" stroke-linejoin="round"/>
<path d="M162.94 119.523V148.063L156.058 154.945L141.788 140.675L162.94 119.523Z" fill="url(#paint3_linear)" stroke="white" stroke-width="10" stroke-miterlimit="10" stroke-linejoin="round"/>
<path d="M155.349 98.4723L127.417 126.405L113.147 140.675L99.4843 154.236L85.2144 139.966L113.147 112.034L126.708 98.4723L141.08 84.1012L155.349 98.4723Z" fill="url(#paint4_linear)" stroke="white" stroke-width="10" stroke-miterlimit="10" stroke-linejoin="round"/>
<path d="M162.94 90.8819V119.523L141.788 140.675L127.417 154.945L119.523 162.94H90.8819L99.4843 154.236L113.147 140.675L127.417 126.405L155.349 98.4723L162.94 90.8819Z" fill="url(#paint5_linear)" stroke="white" stroke-width="10" stroke-miterlimit="10" stroke-linejoin="round"/>
<path d="M162.94 62.241V90.8819L155.349 98.4723L141.079 84.1012L154.641 70.5398L162.94 62.241Z" fill="url(#paint6_linear)" stroke="white" stroke-width="10" stroke-miterlimit="10" stroke-linejoin="round"/>
<path d="M41.5952 40.4819L27.2241 54.7518L13.6627 68.4145L5.06024 77.0169V48.3759L27.2241 26.2121L41.5952 40.4819Z" fill="url(#paint7_linear)" stroke="white" stroke-width="10" stroke-miterlimit="10" stroke-linejoin="round"/>
<path d="M105.658 5.06024L97.359 13.2578L83.7976 26.9205L41.5952 69.1229L27.9325 82.6843L13.6627 97.0554L5.06024 105.658V77.0169L27.2241 54.7518L41.5952 40.4819L77.0169 5.06024H105.658Z" fill="url(#paint8_linear)" stroke="white" stroke-width="10" stroke-miterlimit="10" stroke-linejoin="round"/>
<path d="M42.3036 97.0554L14.3711 124.988L5.06024 134.198V105.658L13.6627 97.0554L27.9325 82.6843L42.3036 97.0554Z" fill="url(#paint9_linear)" stroke="white" stroke-width="10" stroke-miterlimit="10" stroke-linejoin="round"/>
<path d="M98.0675 41.1904L83.7976 55.5614L70.2361 69.1229L55.8651 83.3928L42.3036 97.0554L27.9325 82.6843L41.5952 69.1229L83.7976 26.9205L98.0675 41.1904Z" fill="url(#paint10_linear)" stroke="white" stroke-width="10" stroke-miterlimit="10" stroke-linejoin="round"/>
<path d="M70.2362 69.1229L55.8651 83.3928L42.3036 97.0554L55.8651 83.3928L70.2362 69.1229Z" fill="url(#paint11_linear)" stroke="white" stroke-width="10" stroke-miterlimit="10" stroke-linejoin="round"/>
<path d="M70.2361 69.1229L55.8651 83.3928L70.2361 69.1229Z" fill="url(#paint12_linear)" stroke="white" stroke-width="10" stroke-miterlimit="10" stroke-linejoin="round"/>
<path d="M162.839 5.06024L126 41.8988L112.439 55.5614L98.0675 69.8313L84.506 83.3928L70.2361 97.7638L56.5735 111.325L5.06024 162.839V134.198L14.3711 124.988L42.3036 97.0554L55.8651 83.3928L70.2361 69.1229L111.73 27.6289L126 13.2578L134.299 5.06024H162.839Z" fill="url(#paint13_linear)" stroke="white" stroke-width="10" stroke-miterlimit="10" stroke-linejoin="round"/>
<path d="M55.8651 83.3928L42.3036 97.0554L55.8651 83.3928Z" fill="url(#paint14_linear)" stroke="white" stroke-width="10" stroke-miterlimit="10" stroke-linejoin="round"/>
<path d="M43.012 153.528L33.6 162.94H5.06024V162.839L28.641 139.258L43.012 153.528Z" fill="url(#paint15_linear)" stroke="white" stroke-width="10" stroke-miterlimit="10" stroke-linejoin="round"/>
<path d="M98.7759 97.7638L84.506 112.034L70.9446 125.595L56.5735 139.966L43.012 153.528L28.641 139.258L56.5735 111.325L70.2361 97.7638L84.506 83.3928L98.7759 97.7638Z" fill="url(#paint16_linear)" stroke="white" stroke-width="10" stroke-miterlimit="10" stroke-linejoin="round"/>
<path d="M43.0121 153.528L33.6 162.94L43.0121 153.528Z" fill="url(#paint17_linear)" stroke="white" stroke-width="10" stroke-miterlimit="10" stroke-linejoin="round"/>
<path d="M154.641 41.8988L140.371 56.2699L126.708 69.8313L112.439 84.1012L98.7759 97.7639L84.506 83.3928L98.0675 69.8313L112.439 55.5615L126 41.8988L140.371 27.6289L154.641 41.8988Z" fill="url(#paint18_linear)" stroke="white" stroke-width="10" stroke-miterlimit="10" stroke-linejoin="round"/>
<path d="M162.94 5.06024V33.6L154.641 41.8988L140.371 27.6289L162.839 5.06024H162.94Z" fill="url(#paint19_linear)" stroke="white" stroke-width="10" stroke-miterlimit="10" stroke-linejoin="round"/>
<path d="M162.94 33.6V62.241L154.641 70.5398L141.08 84.1012L126.708 98.4723L113.147 112.034L62.241 162.94H33.6L43.0121 153.528L56.5735 139.966L70.9446 125.595L84.506 112.034L98.7759 97.7639L112.439 84.1012L126.708 69.8313L140.371 56.2699L154.641 41.8988L162.94 33.6Z" fill="url(#paint20_linear)" stroke="white" stroke-width="10" stroke-miterlimit="10" stroke-linejoin="round"/>
<path d="M134.299 5.06024L126 13.2578L111.73 27.6289L98.0675 41.1904L83.7976 26.9205L97.359 13.2578L105.658 5.06024H134.299Z" fill="url(#paint21_linear)" stroke="white" stroke-width="10" stroke-miterlimit="10" stroke-linejoin="round"/>
<path d="M77.0169 5.06024L69.5277 12.5494L77.0169 5.06024Z" fill="url(#paint22_linear)" stroke="white" stroke-width="10" stroke-miterlimit="10" stroke-linejoin="round"/>
<path d="M77.0169 5.06024L69.5277 12.5494L41.5952 40.4819L27.2241 26.212L48.3759 5.06024H77.0169Z" fill="url(#paint23_linear)" stroke="white" stroke-width="10" stroke-miterlimit="10" stroke-linejoin="round"/>
<path d="M77.0169 5.06024L69.5277 12.5494L77.0169 5.06024Z" fill="url(#paint24_linear)" stroke="white" stroke-width="10" stroke-miterlimit="10" stroke-linejoin="round"/>
<path d="M48.3759 5.06024L5.06024 48.3759V19.7349L12.9542 11.841L19.7349 5.06024H48.3759Z" fill="url(#paint25_linear)" stroke="white" stroke-width="10" stroke-miterlimit="10" stroke-linejoin="round"/>
<path d="M19.7349 5.06024L12.9542 11.841L5.06024 19.7349V5.06024H19.7349Z" fill="url(#paint26_linear)" stroke="white" stroke-width="10" stroke-miterlimit="10" stroke-linejoin="round"/>
<defs>
<linearGradient id="paint0_linear" x1="80.8627" y1="139.966" x2="80.8627" y2="162.94" gradientUnits="userSpaceOnUse">
<stop stop-color="#333333"/>
<stop offset="1" stop-color="#333333" stop-opacity="0.1"/>
</linearGradient>
<linearGradient id="paint1_linear" x1="137.79" y1="140.675" x2="137.79" y2="162.94" gradientUnits="userSpaceOnUse">
<stop stop-color="#333333"/>
<stop offset="1" stop-color="#333333" stop-opacity="0.1"/>
</linearGradient>
<linearGradient id="paint2_linear" x1="155.552" y1="148.063" x2="155.552" y2="162.94" gradientUnits="userSpaceOnUse">
<stop stop-color="#333333"/>
<stop offset="1" stop-color="#333333" stop-opacity="0.1"/>
</linearGradient>
<linearGradient id="paint3_linear" x1="152.364" y1="119.523" x2="152.364" y2="154.945" gradientUnits="userSpaceOnUse">
<stop stop-color="#333333"/>
<stop offset="1" stop-color="#333333" stop-opacity="0.1"/>
</linearGradient>
<linearGradient id="paint4_linear" x1="120.282" y1="84.1012" x2="120.282" y2="154.236" gradientUnits="userSpaceOnUse">
<stop stop-color="#333333"/>
<stop offset="1" stop-color="#333333" stop-opacity="0.1"/>
</linearGradient>
<linearGradient id="paint5_linear" x1="126.911" y1="90.8819" x2="126.911" y2="162.94" gradientUnits="userSpaceOnUse">
<stop stop-color="#333333"/>
<stop offset="1" stop-color="#333333" stop-opacity="0.1"/>
</linearGradient>
<linearGradient id="paint6_linear" x1="152.01" y1="62.241" x2="152.01" y2="98.4723" gradientUnits="userSpaceOnUse">
<stop stop-color="#333333"/>
<stop offset="1" stop-color="#333333" stop-opacity="0.1"/>
</linearGradient>
<linearGradient id="paint7_linear" x1="23.3277" y1="26.2121" x2="23.3277" y2="77.0169" gradientUnits="userSpaceOnUse">
<stop stop-color="#333333"/>
<stop offset="1" stop-color="#333333" stop-opacity="0.1"/>
</linearGradient>
<linearGradient id="paint8_linear" x1="55.359" y1="5.06024" x2="55.359" y2="105.658" gradientUnits="userSpaceOnUse">
<stop stop-color="#333333"/>
<stop offset="1" stop-color="#333333" stop-opacity="0.1"/>
</linearGradient>
<linearGradient id="paint9_linear" x1="23.6819" y1="82.6843" x2="23.6819" y2="134.198" gradientUnits="userSpaceOnUse">
<stop stop-color="#333333"/>
<stop offset="1" stop-color="#333333" stop-opacity="0.1"/>
</linearGradient>
<linearGradient id="paint10_linear" x1="63" y1="26.9205" x2="63" y2="97.0554" gradientUnits="userSpaceOnUse">
<stop stop-color="#333333"/>
<stop offset="1" stop-color="#333333" stop-opacity="0.1"/>
</linearGradient>
<linearGradient id="paint11_linear" x1="56.2699" y1="69.1229" x2="56.2699" y2="97.0554" gradientUnits="userSpaceOnUse">
<stop stop-color="#333333"/>
<stop offset="1" stop-color="#333333" stop-opacity="0.1"/>
</linearGradient>
<linearGradient id="paint12_linear" x1="63.0506" y1="69.1229" x2="63.0506" y2="83.3928" gradientUnits="userSpaceOnUse">
<stop stop-color="#333333"/>
<stop offset="1" stop-color="#333333" stop-opacity="0.1"/>
</linearGradient>
<linearGradient id="paint13_linear" x1="83.9494" y1="5.06024" x2="83.9494" y2="162.839" gradientUnits="userSpaceOnUse">
<stop stop-color="#333333"/>
<stop offset="1" stop-color="#333333" stop-opacity="0.1"/>
</linearGradient>
<linearGradient id="paint14_linear" x1="49.0843" y1="83.3928" x2="49.0843" y2="97.0554" gradientUnits="userSpaceOnUse">
<stop stop-color="#333333"/>
<stop offset="1" stop-color="#333333" stop-opacity="0.1"/>
</linearGradient>
<linearGradient id="paint15_linear" x1="24.0361" y1="139.258" x2="24.0361" y2="162.94" gradientUnits="userSpaceOnUse">
<stop stop-color="#333333"/>
<stop offset="1" stop-color="#333333" stop-opacity="0.1"/>
</linearGradient>
<linearGradient id="paint16_linear" x1="63.7084" y1="83.3928" x2="63.7084" y2="153.528" gradientUnits="userSpaceOnUse">
<stop stop-color="#333333"/>
<stop offset="1" stop-color="#333333" stop-opacity="0.1"/>
</linearGradient>
<linearGradient id="paint17_linear" x1="38.306" y1="153.528" x2="38.306" y2="162.94" gradientUnits="userSpaceOnUse">
<stop stop-color="#333333"/>
<stop offset="1" stop-color="#333333" stop-opacity="0.1"/>
</linearGradient>
<linearGradient id="paint18_linear" x1="119.574" y1="27.6289" x2="119.574" y2="97.7639" gradientUnits="userSpaceOnUse">
<stop stop-color="#333333"/>
<stop offset="1" stop-color="#333333" stop-opacity="0.1"/>
</linearGradient>
<linearGradient id="paint19_linear" x1="151.655" y1="5.06024" x2="151.655" y2="41.8988" gradientUnits="userSpaceOnUse">
<stop stop-color="#333333"/>
<stop offset="1" stop-color="#333333" stop-opacity="0.1"/>
</linearGradient>
<linearGradient id="paint20_linear" x1="98.2699" y1="33.6" x2="98.2699" y2="162.94" gradientUnits="userSpaceOnUse">
<stop stop-color="#333333"/>
<stop offset="1" stop-color="#333333" stop-opacity="0.1"/>
</linearGradient>
<linearGradient id="paint21_linear" x1="109.048" y1="5.06024" x2="109.048" y2="41.1904" gradientUnits="userSpaceOnUse">
<stop stop-color="#333333"/>
<stop offset="1" stop-color="#333333" stop-opacity="0.1"/>
</linearGradient>
<linearGradient id="paint22_linear" x1="73.2723" y1="5.06024" x2="73.2723" y2="12.5494" gradientUnits="userSpaceOnUse">
<stop stop-color="#333333"/>
<stop offset="1" stop-color="#333333" stop-opacity="0.1"/>
</linearGradient>
<linearGradient id="paint23_linear" x1="52.1205" y1="5.06024" x2="52.1205" y2="40.4819" gradientUnits="userSpaceOnUse">
<stop stop-color="#333333"/>
<stop offset="1" stop-color="#333333" stop-opacity="0.1"/>
</linearGradient>
<linearGradient id="paint24_linear" x1="73.2723" y1="5.06024" x2="73.2723" y2="12.5494" gradientUnits="userSpaceOnUse">
<stop stop-color="#333333"/>
<stop offset="1" stop-color="#333333" stop-opacity="0.1"/>
</linearGradient>
<linearGradient id="paint25_linear" x1="26.7181" y1="5.06024" x2="26.7181" y2="48.3759" gradientUnits="userSpaceOnUse">
<stop stop-color="#333333"/>
<stop offset="1" stop-color="#333333" stop-opacity="0.1"/>
</linearGradient>
<linearGradient id="paint26_linear" x1="12.3976" y1="5.06024" x2="12.3976" y2="19.7349" gradientUnits="userSpaceOnUse">
<stop stop-color="#333333"/>
<stop offset="1" stop-color="#333333" stop-opacity="0.1"/>
</linearGradient>
</defs>
</svg>

<svg width="168" height="168" fill="none" xmlns="http://www.w3.org/2000/svg"><path d="M99.5 154.2l-8.6 8.7H62.2l23-23 14.3 14.3z" fill="url(#paint0_linear)" stroke="#fff" stroke-width="10" stroke-miterlimit="10" stroke-linejoin="round"/><path d="M156 155l-7.8 8h-28.7l22.3-22.3 14.3 14.2z" fill="url(#paint1_linear)" stroke="#fff" stroke-width="10" stroke-miterlimit="10" stroke-linejoin="round"/><path d="M163 148v15h-14.8l7.9-8 6.8-7z" fill="url(#paint2_linear)" stroke="#fff" stroke-width="10" stroke-miterlimit="10" stroke-linejoin="round"/><path d="M163 119.5v28.6l-7 6.8-14.2-14.2 21.1-21.2z" fill="url(#paint3_linear)" stroke="#fff" stroke-width="10" stroke-miterlimit="10" stroke-linejoin="round"/><path d="M155.3 98.5l-27.9 28-14.3 14.2-13.6 13.5L85.2 140l28-28 13.5-13.5L141.1 84l14.2 14.4z" fill="url(#paint4_linear)" stroke="#fff" stroke-width="10" stroke-miterlimit="10" stroke-linejoin="round"/><path d="M163 90.9v28.6l-21.2 21.2-14.4 14.2-7.9 8H91l8.6-8.7 13.6-13.5 14.3-14.3 28-28 7.5-7.5z" fill="url(#paint5_linear)" stroke="#fff" stroke-width="10" stroke-miterlimit="10" stroke-linejoin="round"/><path d="M163 62.2V91l-7.7 7.6L141.1 84l13.5-13.6 8.3-8.3z" fill="url(#paint6_linear)" stroke="#fff" stroke-width="10" stroke-miterlimit="10" stroke-linejoin="round"/><path d="M41.6 40.5L27.2 54.8 13.7 68.4 5 77V48.4l22.1-22.2 14.4 14.3z" fill="url(#paint7_linear)" stroke="#fff" stroke-width="10" stroke-miterlimit="10" stroke-linejoin="round"/><path d="M105.7 5l-8.3 8.3-13.6 13.6-42.2 42.2-13.7 13.6L13.7 97 5 105.7V77l22.1-22.2 14.4-14.3L77 5h28.7z" fill="url(#paint8_linear)" stroke="#fff" stroke-width="10" stroke-miterlimit="10" stroke-linejoin="round"/><path d="M42.3 97l-28 28-9.2 9.2v-28.5l8.6-8.6 14.2-14.4L42.3 97z" fill="url(#paint9_linear)" stroke="#fff" stroke-width="10" stroke-miterlimit="10" stroke-linejoin="round"/><path d="M98 41.2L83.9 55.6 70.2 69 56 83.4 42.3 97 27.9 82.7 41.6 69 83.8 27l14.3 14.3z" fill="url(#paint10_linear)" stroke="#fff" stroke-width="10" stroke-miterlimit="10" stroke-linejoin="round"/><path d="M70.2 69.1L56 83.4 42.3 97l13.6-13.7L70.2 69z" fill="url(#paint11_linear)" stroke="#fff" stroke-width="10" stroke-miterlimit="10" stroke-linejoin="round"/><path d="M70.2 69.1L56 83.4 70.2 69z" fill="url(#paint12_linear)" stroke="#fff" stroke-width="10" stroke-miterlimit="10" stroke-linejoin="round"/><path d="M162.8 5L126 42l-13.6 13.7-14.3 14.2-13.6 13.6-14.3 14.4-13.6 13.5L5 162.8v-28.6l9.3-9.2 27.9-28 13.6-13.6L70.2 69l41.5-41.5L126 13.3l8.3-8.2h28.5z" fill="url(#paint13_linear)" stroke="#fff" stroke-width="10" stroke-miterlimit="10" stroke-linejoin="round"/><path d="M55.9 83.4L42.3 97l13.6-13.7z" fill="url(#paint14_linear)" stroke="#fff" stroke-width="10" stroke-miterlimit="10" stroke-linejoin="round"/><path d="M43 153.5l-9.4 9.4H5.1v0l23.5-23.6L43 153.5z" fill="url(#paint15_linear)" stroke="#fff" stroke-width="10" stroke-miterlimit="10" stroke-linejoin="round"/><path d="M98.8 97.8L84.5 112 71 125.6 56.6 140 43 153.5l-14.4-14.2 28-28 13.6-13.5 14.3-14.4 14.3 14.4z" fill="url(#paint16_linear)" stroke="#fff" stroke-width="10" stroke-miterlimit="10" stroke-linejoin="round"/><path d="M43 153.5l-9.4 9.4 9.4-9.4z" fill="url(#paint17_linear)" stroke="#fff" stroke-width="10" stroke-miterlimit="10" stroke-linejoin="round"/><path d="M154.6 41.9l-14.2 14.4-13.7 13.5-14.3 14.3-13.6 13.7-14.3-14.4 13.6-13.6 14.3-14.2L126 41.9l14.4-14.3L154.6 42z" fill="url(#paint18_linear)" stroke="#fff" stroke-width="10" stroke-miterlimit="10" stroke-linejoin="round"/><path d="M163 5v28.6l-8.4 8.3-14.2-14.3 22.4-22.5h.1z" fill="url(#paint19_linear)" stroke="#fff" stroke-width="10" stroke-miterlimit="10" stroke-linejoin="round"/><path d="M163 33.6v28.6l-8.4 8.3-13.5 13.6-14.4 14.4-13.6 13.5-50.9 51H33.6l9.4-9.5L56.6 140l14.3-14.4L84.5 112l14.3-14.2L112.4 84l14.3-14.3 13.7-13.5 14.2-14.4 8.3-8.3z" fill="url(#paint20_linear)" stroke="#fff" stroke-width="10" stroke-miterlimit="10" stroke-linejoin="round"/><path d="M134.3 5l-8.3 8.3-14.3 14.3-13.6 13.6-14.3-14.3 13.6-13.6 8.3-8.2h28.6z" fill="url(#paint21_linear)" stroke="#fff" stroke-width="10" stroke-miterlimit="10" stroke-linejoin="round"/><path d="M77 5l-7.5 7.5L77 5.1z" fill="url(#paint22_linear)" stroke="#fff" stroke-width="10" stroke-miterlimit="10" stroke-linejoin="round"/><path d="M77 5l-7.5 7.5-27.9 28-14.4-14.3L48.4 5.1H77z" fill="url(#paint23_linear)" stroke="#fff" stroke-width="10" stroke-miterlimit="10" stroke-linejoin="round"/><path d="M77 5l-7.5 7.5L77 5.1z" fill="url(#paint24_linear)" stroke="#fff" stroke-width="10" stroke-miterlimit="10" stroke-linejoin="round"/><path d="M48.4 5L5 48.5V19.7l7.9-7.9 6.7-6.7h28.7z" fill="url(#paint25_linear)" stroke="#fff" stroke-width="10" stroke-miterlimit="10" stroke-linejoin="round"/><path d="M19.7 5L13 11.9l-8 8V5h14.7z" fill="url(#paint26_linear)" stroke="#fff" stroke-width="10" stroke-miterlimit="10" stroke-linejoin="round"/><defs><linearGradient id="paint0_linear" x1="80.9" y1="140" x2="80.9" y2="162.9" gradientUnits="userSpaceOnUse"><stop stop-color="#000333"/><stop offset="1" stop-color="#000333" stop-opacity=".1"/></linearGradient><linearGradient id="paint1_linear" x1="137.8" y1="140.7" x2="137.8" y2="162.9" gradientUnits="userSpaceOnUse"><stop stop-color="#000333"/><stop offset="1" stop-color="#000333" stop-opacity=".1"/></linearGradient><linearGradient id="paint2_linear" x1="155.6" y1="148.1" x2="155.6" y2="162.9" gradientUnits="userSpaceOnUse"><stop stop-color="#000333"/><stop offset="1" stop-color="#000333" stop-opacity=".1"/></linearGradient><linearGradient id="paint3_linear" x1="152.4" y1="119.5" x2="152.4" y2="154.9" gradientUnits="userSpaceOnUse"><stop stop-color="#000333"/><stop offset="1" stop-color="#000333" stop-opacity=".1"/></linearGradient><linearGradient id="paint4_linear" x1="120.3" y1="84.1" x2="120.3" y2="154.2" gradientUnits="userSpaceOnUse"><stop stop-color="#000333"/><stop offset="1" stop-color="#000333" stop-opacity=".1"/></linearGradient><linearGradient id="paint5_linear" x1="126.9" y1="90.9" x2="126.9" y2="162.9" gradientUnits="userSpaceOnUse"><stop stop-color="#000333"/><stop offset="1" stop-color="#000333" stop-opacity=".1"/></linearGradient><linearGradient id="paint6_linear" x1="152" y1="62.2" x2="152" y2="98.5" gradientUnits="userSpaceOnUse"><stop stop-color="#000333"/><stop offset="1" stop-color="#000333" stop-opacity=".1"/></linearGradient><linearGradient id="paint7_linear" x1="23.3" y1="26.2" x2="23.3" y2="77" gradientUnits="userSpaceOnUse"><stop stop-color="#000333"/><stop offset="1" stop-color="#000333" stop-opacity=".1"/></linearGradient><linearGradient id="paint8_linear" x1="55.4" y1="5.1" x2="55.4" y2="105.7" gradientUnits="userSpaceOnUse"><stop stop-color="#000333"/><stop offset="1" stop-color="#000333" stop-opacity=".1"/></linearGradient><linearGradient id="paint9_linear" x1="23.7" y1="82.7" x2="23.7" y2="134.2" gradientUnits="userSpaceOnUse"><stop stop-color="#000333"/><stop offset="1" stop-color="#000333" stop-opacity=".1"/></linearGradient><linearGradient id="paint10_linear" x1="63" y1="26.9" x2="63" y2="97.1" gradientUnits="userSpaceOnUse"><stop stop-color="#000333"/><stop offset="1" stop-color="#000333" stop-opacity=".1"/></linearGradient><linearGradient id="paint11_linear" x1="56.3" y1="69.1" x2="56.3" y2="97.1" gradientUnits="userSpaceOnUse"><stop stop-color="#000333"/><stop offset="1" stop-color="#000333" stop-opacity=".1"/></linearGradient><linearGradient id="paint12_linear" x1="63.1" y1="69.1" x2="63.1" y2="83.4" gradientUnits="userSpaceOnUse"><stop stop-color="#000333"/><stop offset="1" stop-color="#000333" stop-opacity=".1"/></linearGradient><linearGradient id="paint13_linear" x1="83.9" y1="5.1" x2="83.9" y2="162.8" gradientUnits="userSpaceOnUse"><stop stop-color="#000333"/><stop offset="1" stop-color="#000333" stop-opacity=".1"/></linearGradient><linearGradient id="paint14_linear" x1="49.1" y1="83.4" x2="49.1" y2="97.1" gradientUnits="userSpaceOnUse"><stop stop-color="#000333"/><stop offset="1" stop-color="#000333" stop-opacity=".1"/></linearGradient><linearGradient id="paint15_linear" x1="24" y1="139.3" x2="24" y2="162.9" gradientUnits="userSpaceOnUse"><stop stop-color="#000333"/><stop offset="1" stop-color="#000333" stop-opacity=".1"/></linearGradient><linearGradient id="paint16_linear" x1="63.7" y1="83.4" x2="63.7" y2="153.5" gradientUnits="userSpaceOnUse"><stop stop-color="#000333"/><stop offset="1" stop-color="#000333" stop-opacity=".1"/></linearGradient><linearGradient id="paint17_linear" x1="38.3" y1="153.5" x2="38.3" y2="162.9" gradientUnits="userSpaceOnUse"><stop stop-color="#000333"/><stop offset="1" stop-color="#000333" stop-opacity=".1"/></linearGradient><linearGradient id="paint18_linear" x1="119.6" y1="27.6" x2="119.6" y2="97.8" gradientUnits="userSpaceOnUse"><stop stop-color="#000333"/><stop offset="1" stop-color="#000333" stop-opacity=".1"/></linearGradient><linearGradient id="paint19_linear" x1="151.7" y1="5.1" x2="151.7" y2="41.9" gradientUnits="userSpaceOnUse"><stop stop-color="#000333"/><stop offset="1" stop-color="#000333" stop-opacity=".1"/></linearGradient><linearGradient id="paint20_linear" x1="98.3" y1="33.6" x2="98.3" y2="162.9" gradientUnits="userSpaceOnUse"><stop stop-color="#000333"/><stop offset="1" stop-color="#000333" stop-opacity=".1"/></linearGradient><linearGradient id="paint21_linear" x1="109" y1="5.1" x2="109" y2="41.2" gradientUnits="userSpaceOnUse"><stop stop-color="#000333"/><stop offset="1" stop-color="#000333" stop-opacity=".1"/></linearGradient><linearGradient id="paint22_linear" x1="73.3" y1="5.1" x2="73.3" y2="12.5" gradientUnits="userSpaceOnUse"><stop stop-color="#000333"/><stop offset="1" stop-color="#000333" stop-opacity=".1"/></linearGradient><linearGradient id="paint23_linear" x1="52.1" y1="5.1" x2="52.1" y2="40.5" gradientUnits="userSpaceOnUse"><stop stop-color="#000333"/><stop offset="1" stop-color="#000333" stop-opacity=".1"/></linearGradient><linearGradient id="paint24_linear" x1="73.3" y1="5.1" x2="73.3" y2="12.5" gradientUnits="userSpaceOnUse"><stop stop-color="#000333"/><stop offset="1" stop-color="#000333" stop-opacity=".1"/></linearGradient><linearGradient id="paint25_linear" x1="26.7" y1="5.1" x2="26.7" y2="48.4" gradientUnits="userSpaceOnUse"><stop stop-color="#000333"/><stop offset="1" stop-color="#000333" stop-opacity=".1"/></linearGradient><linearGradient id="paint26_linear" x1="12.4" y1="5.1" x2="12.4" y2="19.7" gradientUnits="userSpaceOnUse"><stop stop-color="#000333"/><stop offset="1" stop-color="#000333" stop-opacity=".1"/></linearGradient></defs></svg>
